X: 2168
T: Mrs MORAY OF ABERCAIRNY
Q: "Reel."
R: Reel.
%R: reel
B: James Kerr "Merry Melodies" v.2 p.19 #168
Z: 2016 John Chambers <jc:trillian.mit.edu>
M: C
L: 1/8
K: D
uA |\
F2(DF) ABAF | ABdF E2(EA) |\
FDDF ABAF | ABdF A3 ::\
uB |\
defd ecdB |
AFdF E3 \
[1 ue | defa efde | dBAF A3 :|\
[2  D | FAAd Bdef | dBAF D3 |]

